apps/mobile/assets/icons/phosphor/newspaper.svg

<svg
  height="32"
  viewBox="0 0 256 256"
  width="32"
  xmlns="http://www.w3.org/2000/svg"
>
  <path
    d="m88 112a8 8 0 0 1 8-8h80a8 8 0 0 1 0 16h-80a8 8 0 0 1 -8-8zm8 40h80a8 8 0 0 0 0-16h-80a8 8 0 0 0 0 16zm136-88v120a24 24 0 0 1 -24 24h-176a24 24 0 0 1 -24-23.89v-96.11a8 8 0 0 1 16 0v96a8 8 0 0 0 16 0v-120a16 16 0 0 1 16-16h160a16 16 0 0 1 16 16zm-16 0h-160v120a23.84 23.84 0 0 1 -1.37 8h153.37a8 8 0 0 0 8-8z"
  />
</svg>

<svg xmlns="http://www.w3.org/2000/svg" width="32" height="32" fill="#000000" viewBox="0 0 256 256"><path d="M88,112a8,8,0,0,1,8-8h80a8,8,0,0,1,0,16H96A8,8,0,0,1,88,112Zm8,40h80a8,8,0,0,0,0-16H96a8,8,0,0,0,0,16ZM232,64V184a24,24,0,0,1-24,24H32A24,24,0,0,1,8,184.11V88a8,8,0,0,1,16,0v96a8,8,0,0,0,16,0V64A16,16,0,0,1,56,48H216A16,16,0,0,1,232,64Zm-16,0H56V184a23.84,23.84,0,0,1-1.37,8H208a8,8,0,0,0,8-8Z"></path></svg>
